brandFactory_export/2.Regular/Documento_Archivo CSS_2Regular.svg

<?xml version="1.0" encoding="UTF-8"?>
<svg width="24px" height="24px" viewBox="0 0 24 24" version="1.1" xmlns="http://www.w3.org/2000/svg" xmlns:xlink="http://www.w3.org/1999/xlink">
    <title>2.Regular/Documento_Archivo CSS_2Regular</title>
    <g id="Symbols" stroke="none" stroke-width="1" fill="none" fill-rule="evenodd">
        <g id="2.Regular/Documento_Archivo-CSS_2Regular" fill="#5CB615" fill-rule="nonzero">
            <path d="M16.2117647,0.0302521008 C16.4907563,0.0302521008 16.7529412,0.134453782 16.9478992,0.329411765 L23.3042017,6.48067227 C23.4386555,6.61176471 23.5159664,6.77647059 23.5663866,6.94453782 C23.6033613,7.03193277 23.6235294,7.12941176 23.6235294,7.2302521 L23.6235294,21.9966387 C23.6235294,22.897479 22.8504202,23.6571429 21.9327731,23.6571429 L7.31428571,23.6571429 C6.41344538,23.6571429 5.62352941,22.8806723 5.62352941,21.9966387 L5.66386555,18.6689076 L2.90420168,18.6689076 C1.30420168,18.6689076 2.19149143e-10,17.3613445 2.19149143e-10,15.7579832 L2.19149143e-10,10.8436975 C2.19149143e-10,9.24033613 1.30420168,7.93277311 2.90420168,7.93277311 L5.62352941,7.93277311 L5.62352941,1.6907563 C5.62352941,0.820168067 6.4302521,0.0302521008 7.31428571,0.0302521008 L16.2117647,0.0302521008 Z M15.1563025,1.49243697 L7.31428571,1.49243697 C7.22689076,1.49243697 7.08907563,1.62352941 7.08235294,1.69411765 L7.08235294,7.93613445 L14.7193277,7.93613445 C16.3226891,7.93613445 17.6235294,9.24369748 17.6235294,10.8470588 L17.6235294,15.7613445 C17.6235294,17.3647059 16.3193277,18.6722689 14.7193277,18.6722689 L7.12268908,18.6722689 L7.08235294,22.0067227 C7.08235294,22.0672269 7.20336134,22.1983193 7.31428571,22.1983193 L21.9327731,22.1983193 C22.0504202,22.1983193 22.1647059,22.0840336 22.1647059,21.9966387 L22.1647059,8.27563025 L19.3882353,8.27563025 C18.1714286,8.27563025 17.1193277,7.8789916 16.3462185,7.13277311 C15.5663866,6.37983193 15.1563025,5.3512605 15.1563025,4.15462185 L15.1563025,1.49243697 Z M14.7193277,9.39495798 L2.90420168,9.39495798 C2.10420168,9.39495798 1.45546219,10.0470588 1.45546219,10.8470588 L1.45546219,15.7613445 C1.45546219,16.5613445 2.10420168,17.2134454 2.90420168,17.2134454 L14.7193277,17.2134454 C15.5193277,17.2134454 16.1680672,16.5613445 16.1680672,15.7613445 L16.1680672,10.8470588 C16.1680672,10.0470588 15.5193277,9.39495798 14.7193277,9.39495798 Z M8.76638655,11.0084034 C9.18991597,11.0084034 9.65378151,11.0722689 9.99327731,11.189916 L9.83865546,11.9361345 C9.4789916,11.8386555 9.09243697,11.7815126 8.78319328,11.7815126 C8.24201681,11.7815126 8.07058824,11.9731092 8.07058824,12.2521008 C8.07058824,13.112605 10.312605,12.5210084 10.312605,14.2386555 C10.312605,14.6319328 10.1781513,14.9445378 9.94621849,15.1630252 C9.63697479,15.4521008 9.22016807,15.5798319 8.59159664,15.5798319 C8.03361345,15.5731092 7.57983193,15.502521 7.13613445,15.3478992 L7.2907563,14.5848739 C7.67731092,14.7193277 8.18487395,14.8033613 8.50420168,14.8033613 C9.09579832,14.8033613 9.37142857,14.6487395 9.37142857,14.2453782 C9.37142857,13.4218487 7.12941176,14.0201681 7.12941176,12.292437 C7.12941176,11.3983193 7.82857143,11.0084034 8.76638655,11.0084034 Z M12.5579832,11.0084034 C12.9815126,11.0084034 13.4453782,11.0722689 13.7848739,11.189916 L13.6302521,11.9361345 C13.2705882,11.8386555 12.8840336,11.7815126 12.5747899,11.7815126 C12.0336134,11.7815126 11.8621849,11.9731092 11.8621849,12.2521008 C11.8621849,13.112605 14.1042017,12.5210084 14.1042017,14.2386555 C14.1042017,14.6319328 13.9697479,14.9445378 13.7378151,15.1630252 C13.4285714,15.4521008 13.0117647,15.5798319 12.3831933,15.5798319 C11.8285714,15.5731092 11.3714286,15.502521 10.9277311,15.3478992 L11.0823529,14.5848739 C11.4689076,14.7193277 11.9764706,14.8033613 12.2957983,14.8033613 C12.887395,14.8033613 13.1630252,14.6487395 13.1630252,14.2453782 C13.1630252,13.4218487 10.9210084,14.0201681 10.9210084,12.292437 C10.9210084,11.3983193 11.6201681,11.0084034 12.5579832,11.0084034 Z M5.4487395,11.0084034 C5.82857143,11.0084034 6.31596639,11.092437 6.59831933,11.2067227 L6.47058824,11.9394958 C6.13109244,11.8420168 5.80168067,11.7848739 5.52605042,11.7848739 C4.58151261,11.7848739 4.36302521,12.4067227 4.36302521,13.2806723 C4.36302521,13.8016807 4.4605042,14.2386555 4.6789916,14.4806723 C4.87058824,14.6991597 5.14957983,14.7966387 5.64369748,14.7966387 C5.85546219,14.7966387 6.19495798,14.7563025 6.45378151,14.7058824 L6.55798319,15.4386555 C6.29579832,15.5159664 5.81176471,15.5731092 5.45210084,15.5731092 C4.67226891,15.5731092 4.18487395,15.3882353 3.85546219,15.0420168 C3.48235294,14.6420168 3.3210084,14.0705882 3.3210084,13.307563 C3.3210084,11.9327731 3.94285714,11.0084034 5.4487395,11.0084034 Z M16.6151261,2.03697479 L16.6151261,4.15462185 C16.6151261,4.94453782 16.8739496,5.61008403 17.3613445,6.08403361 C17.8588235,6.56470588 18.5579832,6.81680672 19.3915966,6.81680672 L21.5529412,6.81680672 L16.6151261,2.03697479 Z" id="Documento_Archivo-CSS_2Regular"></path>
        </g>
    </g>
</svg>

<svg width="24" height="24" viewBox="0 0 24 24" xmlns="http://www.w3.org/2000/svg"><path d="M16.212.03c.279 0 .54.104.736.3l6.356 6.15c.135.132.212.296.262.465a.735.735 0 01.058.285v14.767c0 .9-.774 1.66-1.691 1.66H7.314c-.9 0-1.69-.776-1.69-1.66l.04-3.328h-2.76A2.913 2.913 0 010 15.758v-4.914a2.913 2.913 0 012.904-2.911h2.72V1.69c0-.87.806-1.66 1.69-1.66h8.898zm-1.056 1.462H7.314c-.087 0-.225.132-.232.202v6.242h7.637a2.91 2.91 0 012.905 2.911v4.914a2.913 2.913 0 01-2.905 2.911H7.123l-.04 3.335c0 .06.12.191.231.191h14.619c.117 0 .232-.114.232-.201V8.276h-2.777c-1.217 0-2.269-.397-3.042-1.143-.78-.753-1.19-1.782-1.19-2.978V1.492zm-.437 7.903H2.904c-.8 0-1.449.652-1.449 1.452v4.914c0 .8.65 1.452 1.45 1.452h11.814c.8 0 1.45-.652 1.45-1.452v-4.914c0-.8-.65-1.452-1.45-1.452zm-5.953 1.613c.424 0 .888.064 1.227.182l-.154.746a4.263 4.263 0 00-1.056-.154c-.541 0-.712.191-.712.47 0 .86 2.242.269 2.242 1.987 0 .393-.135.706-.367.924-.309.29-.726.417-1.354.417-.558-.007-1.012-.077-1.456-.232l.155-.763c.386.134.894.218 1.213.218.592 0 .867-.154.867-.558 0-.823-2.242-.225-2.242-1.953 0-.894.7-1.284 1.637-1.284zm3.792 0c.424 0 .887.064 1.227.182l-.155.746a4.263 4.263 0 00-1.055-.154c-.541 0-.713.191-.713.47 0 .86 2.242.269 2.242 1.987 0 .393-.134.706-.366.924-.31.29-.726.417-1.355.417-.554-.007-1.012-.077-1.455-.232l.154-.763c.387.134.894.218 1.214.218.591 0 .867-.154.867-.558 0-.823-2.242-.225-2.242-1.953 0-.894.7-1.284 1.637-1.284zm-7.11 0c.38 0 .868.084 1.15.199l-.127.732a3.558 3.558 0 00-.945-.154c-.944 0-1.163.622-1.163 1.496 0 .52.098.958.316 1.2.192.218.47.316.965.316.211 0 .551-.04.81-.091l.104.733c-.262.077-.746.134-1.106.134-.78 0-1.267-.185-1.597-.531-.373-.4-.534-.971-.534-1.734 0-1.375.622-2.3 2.128-2.3zm11.167-8.971v2.118c0 .79.259 1.455.746 1.929.498.48 1.197.733 2.03.733h2.162l-4.938-4.78z" fill="#5CB615" fill-rule="nonzero"/></svg>
